svg/regular/bx-table.svg

<svg xmlns="http://www.w3.org/2000/svg" width="24" height="24"><path d="M4 21h15.893c1.103 0 2-.897 2-2V5c0-1.103-.897-2-2-2H4c-1.103 0-2 .897-2 2v14c0 1.103.897 2 2 2zm0-2v-5h4v5H4zM14 7v5h-4V7h4zM8 7v5H4V7h4zm2 12v-5h4v5h-4zm6 0v-5h3.894v5H16zm3.893-7H16V7h3.893v5z"/></svg>

<svg xmlns="http://www.w3.org/2000/svg" width="24" height="24" viewBox="0 0 24 24"><path d="M4,21h15.893c1.103,0,2-0.897,2-2V7V5v0l0,0c0-1.103-0.897-2-2-2H4C2.897,3,2,3.897,2,5v14C2,20.103,2.897,21,4,21z M4,19 v-5h4v5H4z M14,7v5h-4V7H14z M8,7v5H4V7H8z M10,19v-5h4v5H10z M16,19v-5h3.894v5H16z M19.893,12H16V7h3.893V12z"/></svg>
